dist/assets/img/stages/1.svg

<svg width="243" height="365" viewBox="0 0 243 365" fill="none" xmlns="http://www.w3.org/2000/svg">
<path d="M97.2 76.5933C97.2 57.0509 94.7348 42.867 89.8044 34.0414C85.5783 25.2159 77.1261 19.2271 64.4478 16.0751C51.7696 12.9231 31.3435 11.3471 3.16956 11.3471C1.05652 11.3471 0 9.45596 0 5.67356C0 1.89119 1.05652 0 3.16956 0C23.5957 0 39.7957 0.315188 51.7696 0.945577L121.5 1.8912L190.174 0.945577C202.148 0.315188 218.7 0 239.83 0C241.943 0 243 1.89119 243 5.67356C243 9.45596 241.943 11.3471 239.83 11.3471C213.065 11.3471 192.991 13.2383 179.609 17.0207C166.93 20.1727 158.126 26.1615 153.196 34.987C148.265 43.8126 145.8 57.6814 145.8 76.5933V288.407C145.8 307.949 147.913 322.133 152.139 330.959C157.07 339.784 165.874 345.773 178.552 348.925C191.23 352.077 211.657 353.653 239.83 353.653C241.943 353.653 243 355.544 243 359.326C243 363.109 241.943 365 239.83 365C219.404 365 203.204 364.685 191.23 364.054L121.5 363.109L52.8261 364.054C40.8522 364.685 24.3 365 3.16956 365C1.05652 365 0 363.109 0 359.326C0 355.544 1.05652 353.653 3.16956 353.653C29.9348 353.653 49.6565 352.077 62.3348 348.925C75.7174 345.143 84.8739 338.839 89.8044 330.013C94.7348 321.187 97.2 307.319 97.2 288.407V76.5933Z" fill="white" fill-opacity="0.6"/>
</svg>

<svg width="243" height="365" viewBox="0 0 243 365" fill="none" xmlns="http://www.w3.org/2000/svg"><path d="M97.2 76.593c0-19.542-2.465-33.726-7.396-42.552-4.226-8.825-12.678-14.814-25.356-17.966-12.678-3.152-33.104-4.728-61.278-4.728C1.057 11.347 0 9.456 0 5.674 0 1.89 1.057 0 3.17 0c20.426 0 36.626.315 48.6.946l69.73.945 68.674-.945C202.148.316 218.7 0 239.83 0c2.113 0 3.17 1.891 3.17 5.674 0 3.782-1.057 5.673-3.17 5.673-26.765 0-46.839 1.891-60.221 5.674-12.679 3.152-21.483 9.14-26.413 17.966-4.931 8.826-7.396 22.694-7.396 41.606v211.814c0 19.542 2.113 33.726 6.339 42.552 4.931 8.825 13.735 14.814 26.413 17.966 12.678 3.152 33.105 4.728 61.278 4.728 2.113 0 3.17 1.891 3.17 5.673 0 3.783-1.057 5.674-3.17 5.674-20.426 0-36.626-.315-48.6-.946l-69.73-.945-68.674.945C40.852 364.685 24.3 365 3.17 365 1.057 365 0 363.109 0 359.326c0-3.782 1.057-5.673 3.17-5.673 26.765 0 46.487-1.576 59.165-4.728 13.382-3.782 22.539-10.086 27.47-18.912 4.93-8.826 7.395-22.694 7.395-41.606V76.593z" fill="#fff" fill-opacity=".6"/></svg>
